public/svg/broker-info-one-active.svg

<svg width="70" height="70" viewBox="0 0 70 70" fill="none" xmlns="http://www.w3.org/2000/svg">
<path d="M68.6397 44.5703H1.36026C-0.454102 44.6425 -0.452735 47.2332 1.36026 47.3047H8.11541C12.8486 59.0292 21.5321 66.4401 34.6462 69.9534C34.8781 70.0155 35.1222 70.0155 35.3541 69.9534C48.4689 66.44 57.1526 59.0289 61.8856 47.3047H68.6397C70.4541 47.2324 70.4527 44.642 68.6397 44.5703ZM52.8613 47.3047C52.4962 48.0022 52.1117 48.6739 51.7111 49.313C48.0463 55.161 42.5775 59.1563 34.9998 61.518C27.4223 59.1563 21.9534 55.161 18.2886 49.313C17.888 48.6739 17.5035 48.0024 17.1384 47.3048H52.8613V47.3047ZM35 67.2162C23.3589 64.0097 15.5166 57.4856 11.0809 47.3047H14.084C14.6605 48.5224 15.2945 49.6847 15.9712 50.7646C20.0661 57.2991 26.1615 61.7124 34.6055 64.257C34.8628 64.3345 35.1373 64.3345 35.3946 64.257C43.8387 61.7125 49.9341 57.2991 54.029 50.7648C54.7057 49.6847 55.3396 48.5224 55.9161 47.3047H58.9203C54.4845 57.4855 46.6418 64.0095 35 67.2162Z" fill="#ffffff"/>
<path d="M1.36031 25.4297H68.6397C70.4541 25.3574 70.4527 22.767 68.6397 22.6953H66.3412C66.4154 20.7225 66.4515 18.6543 66.4515 16.4063C66.4515 15.6512 65.8392 15.0391 65.0841 15.0391C57.544 15.0391 51.4096 8.90587 51.4096 1.36719C51.4096 0.61209 50.7973 0 50.0422 0H19.9579C19.2026 0 18.5904 0.61209 18.5904 1.36719C18.5904 8.90587 12.4561 15.0391 4.91586 15.0391C4.16061 15.0391 3.54839 15.6512 3.54839 16.4063C3.54839 18.6572 3.58449 20.7253 3.65847 22.6953H1.36031C-0.454187 22.7675 -0.452683 25.3582 1.36031 25.4297ZM6.2877 17.7166C14.2458 17.0554 20.6091 10.6913 21.2689 2.73438H48.731C49.3909 10.6913 55.7541 17.0554 63.7123 17.7166C63.7006 19.4696 63.6649 21.114 63.6042 22.6953H60.8728C60.8921 22.1902 60.9088 21.6761 60.9227 21.1579C60.9397 20.5311 60.5278 19.973 59.9236 19.8043C53.4982 18.0098 48.4035 12.9012 46.628 6.472C46.4643 5.87932 45.9249 5.46875 45.3098 5.46875H41.1531C39.3387 5.54108 39.3401 8.13149 41.1531 8.20313H44.2954C46.4474 14.7364 51.6323 19.9422 58.1569 22.1219C58.1502 22.3143 58.1432 22.5054 58.1358 22.6953H11.8641C11.8567 22.5054 11.8497 22.3143 11.843 22.1219C18.3675 19.9422 23.5525 14.7364 25.7047 8.20313H28.846C30.6604 8.13094 30.659 5.54026 28.846 5.46875H24.6901C24.075 5.46875 23.5357 5.87932 23.372 6.472C21.5965 12.9012 16.5019 18.01 10.0764 19.8043C9.4724 19.973 9.06052 20.5308 9.07734 21.1577C9.09115 21.6757 9.10783 22.1899 9.12712 22.6952H6.39532C6.33488 21.1158 6.29933 19.4715 6.2877 17.7166Z" fill="#ffffff"/>
<path d="M34.9994 8.20313C36.8136 8.13094 36.8122 5.54025 34.9994 5.46875H34.9984C33.184 5.54121 33.1865 8.13176 34.9994 8.20313Z" fill="#ffffff"/>
<path d="M30.896 32.085C31.3253 32.085 31.694 32.176 32.002 32.358C32.3147 32.54 32.555 32.82 32.723 33.198C32.8957 33.576 32.982 34.059 32.982 34.647V38H31.505V34.913C31.505 34.3577 31.4257 33.9353 31.267 33.646C31.113 33.3567 30.8213 33.212 30.392 33.212C30.1587 33.212 29.9393 33.275 29.734 33.401C29.5287 33.527 29.363 33.716 29.237 33.968C29.1157 34.2153 29.055 34.5303 29.055 34.913V38H27.669V34.913C27.669 34.3577 27.5733 33.9353 27.382 33.646C27.1953 33.3567 26.9153 33.212 26.542 33.212C26.304 33.212 26.0847 33.2727 25.884 33.394C25.6833 33.5153 25.5223 33.702 25.401 33.954C25.2797 34.206 25.219 34.5257 25.219 34.913V38H23.735V32.253H25.219V33.114C25.2703 32.9693 25.3847 32.8177 25.562 32.659C25.744 32.5003 25.9703 32.365 26.241 32.253C26.5117 32.141 26.808 32.085 27.13 32.085C27.48 32.085 27.7693 32.1503 27.998 32.281C28.2313 32.407 28.4157 32.5657 28.551 32.757C28.691 32.9483 28.7937 33.1397 28.859 33.331C28.9243 33.1397 29.0503 32.9483 29.237 32.757C29.4283 32.5657 29.6663 32.407 29.951 32.281C30.2357 32.1503 30.5507 32.085 30.896 32.085ZM37.2718 38.168C36.6698 38.168 36.1331 38.0373 35.6618 37.776C35.1951 37.51 34.8288 37.1507 34.5628 36.698C34.2968 36.2407 34.1638 35.7227 34.1638 35.144C34.1638 34.5653 34.2968 34.045 34.5628 33.583C34.8288 33.121 35.1951 32.757 35.6618 32.491C36.1331 32.2203 36.6698 32.085 37.2718 32.085C37.8738 32.085 38.4058 32.2203 38.8678 32.491C39.3298 32.757 39.6915 33.121 39.9528 33.583C40.2188 34.045 40.3518 34.5653 40.3518 35.144C40.3518 35.7227 40.2188 36.2407 39.9528 36.698C39.6915 37.1507 39.3298 37.51 38.8678 37.776C38.4058 38.0373 37.8738 38.168 37.2718 38.168ZM37.2718 36.908C37.6078 36.908 37.8995 36.831 38.1468 36.677C38.3941 36.523 38.5855 36.313 38.7208 36.047C38.8561 35.781 38.9238 35.4777 38.9238 35.137C38.9238 34.7963 38.8561 34.493 38.7208 34.227C38.5855 33.9563 38.3941 33.7417 38.1468 33.583C37.8995 33.4243 37.6078 33.345 37.2718 33.345C36.9358 33.345 36.6418 33.4243 36.3898 33.583C36.1425 33.7417 35.9488 33.9563 35.8088 34.227C35.6735 34.493 35.6058 34.7963 35.6058 35.137C35.6058 35.4777 35.6735 35.781 35.8088 36.047C35.9488 36.313 36.1425 36.523 36.3898 36.677C36.6418 36.831 36.9358 36.908 37.2718 36.908ZM45.0538 32.085C45.4412 32.085 45.8168 32.1643 46.1808 32.323C46.5448 32.4817 46.8435 32.736 47.0768 33.086C47.3148 33.4313 47.4338 33.8817 47.4338 34.437V38H45.9288V34.71C45.9288 34.192 45.8052 33.8117 45.5578 33.569C45.3152 33.3217 45.0002 33.198 44.6128 33.198C44.3562 33.198 44.1112 33.2703 43.8778 33.415C43.6445 33.5597 43.4532 33.7557 43.3038 34.003C43.1592 34.2503 43.0868 34.535 43.0868 34.857V38H41.5888V32.253H43.0868V33.219C43.1288 33.0603 43.2408 32.8947 43.4228 32.722C43.6095 32.5447 43.8452 32.3953 44.1298 32.274C44.4145 32.148 44.7225 32.085 45.0538 32.085ZM48.4413 32.253H49.5193V29.894H51.0033V32.253H52.4243V33.513H51.0033V35.97C51.0033 36.278 51.0546 36.509 51.1573 36.663C51.2646 36.817 51.4163 36.894 51.6123 36.894C51.7756 36.894 51.9039 36.8637 51.9973 36.803C52.0953 36.7423 52.1536 36.7003 52.1723 36.677L52.7253 37.762C52.6973 37.79 52.6156 37.8367 52.4803 37.902C52.3449 37.9673 52.1699 38.028 51.9553 38.084C51.7406 38.14 51.4956 38.168 51.2203 38.168C50.7349 38.168 50.3289 38.0233 50.0023 37.734C49.6803 37.4447 49.5193 36.992 49.5193 36.376V33.513H48.4413V32.253ZM57.1888 32.085C57.5714 32.085 57.9448 32.1643 58.3088 32.323C58.6728 32.4817 58.9714 32.736 59.2048 33.086C59.4428 33.4313 59.5618 33.8817 59.5618 34.437V38H58.0568V34.71C58.0568 34.192 57.9378 33.8117 57.6998 33.569C57.4664 33.3217 57.1561 33.198 56.7688 33.198C56.5121 33.198 56.2648 33.2703 56.0268 33.415C55.7888 33.5597 55.5928 33.7557 55.4388 34.003C55.2894 34.2503 55.2148 34.535 55.2148 34.857V38H53.7098V28.368H55.2148V33.219C55.2568 33.0603 55.3688 32.8947 55.5508 32.722C55.7374 32.5447 55.9731 32.3953 56.2578 32.274C56.5424 32.148 56.8528 32.085 57.1888 32.085ZM63.3813 32.085C63.7033 32.085 64.0019 32.1153 64.2773 32.176C64.5526 32.2367 64.7883 32.309 64.9843 32.393C65.1803 32.477 65.3156 32.547 65.3903 32.603L64.8443 33.527C64.7509 33.4477 64.5829 33.3567 64.3403 33.254C64.1023 33.1513 63.8339 33.1 63.5353 33.1C63.2366 33.1 62.9846 33.1537 62.7793 33.261C62.5739 33.3683 62.4713 33.5293 62.4713 33.744C62.4713 33.954 62.5786 34.122 62.7933 34.248C63.0126 34.374 63.3089 34.479 63.6823 34.563C63.9903 34.633 64.2843 34.731 64.5643 34.857C64.8443 34.9783 65.0729 35.1533 65.2503 35.382C65.4323 35.606 65.5233 35.907 65.5233 36.285C65.5233 36.6443 65.4463 36.9453 65.2923 37.188C65.1429 37.426 64.9423 37.6173 64.6903 37.762C64.4383 37.9067 64.1583 38.0093 63.8503 38.07C63.5469 38.1353 63.2413 38.168 62.9333 38.168C62.5553 38.168 62.2169 38.1307 61.9183 38.056C61.6243 37.9813 61.3793 37.895 61.1833 37.797C60.9873 37.6943 60.8473 37.608 60.7633 37.538L61.3093 36.502C61.4306 36.6187 61.6289 36.7423 61.9043 36.873C62.1796 36.999 62.4876 37.062 62.8283 37.062C63.1923 37.062 63.4839 36.992 63.7033 36.852C63.9226 36.712 64.0323 36.5253 64.0323 36.292C64.0323 36.1193 63.9786 35.9793 63.8713 35.872C63.7686 35.7647 63.6263 35.6783 63.4443 35.613C63.2623 35.5477 63.0593 35.4893 62.8353 35.438C62.6253 35.3867 62.4129 35.3213 62.1983 35.242C61.9883 35.158 61.7946 35.0507 61.6173 34.92C61.4399 34.7847 61.2976 34.6167 61.1903 34.416C61.0829 34.2153 61.0293 33.9797 61.0293 33.709C61.0293 33.3637 61.1389 33.0697 61.3583 32.827C61.5776 32.5843 61.8669 32.4 62.2263 32.274C62.5856 32.148 62.9706 32.085 63.3813 32.085Z" fill="#ffffff"/>
<path d="M2.89542 33.387C2.89542 32.5703 2.99342 31.861 3.18942 31.259C3.39009 30.657 3.66076 30.16 4.00142 29.768C4.34209 29.3713 4.72476 29.0773 5.14942 28.886C5.57409 28.69 6.01276 28.592 6.46542 28.592C6.92276 28.592 7.36376 28.69 7.78842 28.886C8.21776 29.0773 8.60042 29.3713 8.93642 29.768C9.27242 30.16 9.53842 30.657 9.73442 31.259C9.93042 31.861 10.0284 32.5703 10.0284 33.387C10.0284 34.2317 9.93042 34.955 9.73442 35.557C9.53842 36.159 9.27242 36.6537 8.93642 37.041C8.60042 37.4237 8.21776 37.7083 7.78842 37.895C7.36376 38.077 6.92276 38.168 6.46542 38.168C6.01276 38.168 5.57409 38.077 5.14942 37.895C4.72476 37.7083 4.34209 37.4237 4.00142 37.041C3.66076 36.6537 3.39009 36.159 3.18942 35.557C2.99342 34.955 2.89542 34.2317 2.89542 33.387ZM4.38642 33.387C4.38642 34.1617 4.47742 34.808 4.65942 35.326C4.84609 35.8393 5.09576 36.222 5.40842 36.474C5.72576 36.7213 6.07809 36.845 6.46542 36.845C6.86209 36.845 7.21442 36.719 7.52242 36.467C7.83509 36.215 8.08242 35.8323 8.26442 35.319C8.44642 34.8057 8.53742 34.1617 8.53742 33.387C8.53742 32.6263 8.44642 31.9893 8.26442 31.476C8.08242 30.9627 7.83509 30.5753 7.52242 30.314C7.21442 30.048 6.86209 29.915 6.46542 29.915C6.07809 29.915 5.72576 30.048 5.40842 30.314C5.09576 30.5753 4.84609 30.965 4.65942 31.483C4.47742 31.9963 4.38642 32.631 4.38642 33.387ZM11.2669 30.349C11.2995 30.2137 11.3812 30.048 11.5119 29.852C11.6472 29.656 11.8315 29.4623 12.0649 29.271C12.2982 29.0797 12.5899 28.9187 12.9399 28.788C13.2945 28.6573 13.7075 28.592 14.1789 28.592C14.7669 28.592 15.2755 28.7017 15.7049 28.921C16.1389 29.1357 16.4725 29.432 16.7059 29.81C16.9392 30.188 17.0559 30.6197 17.0559 31.105C17.0559 31.4457 16.9882 31.756 16.8529 32.036C16.7222 32.316 16.5519 32.547 16.3419 32.729C16.1365 32.9063 15.9172 33.0183 15.6839 33.065C15.9359 33.093 16.1902 33.198 16.4469 33.38C16.7082 33.5573 16.9252 33.8047 17.0979 34.122C17.2752 34.4347 17.3639 34.8057 17.3639 35.235C17.3639 35.795 17.2262 36.2967 16.9509 36.74C16.6802 37.1833 16.3022 37.5333 15.8169 37.79C15.3362 38.042 14.7809 38.168 14.1509 38.168C13.5209 38.168 12.9842 38.0607 12.5409 37.846C12.0975 37.6267 11.7429 37.3583 11.4769 37.041C11.2155 36.7237 11.0382 36.418 10.9449 36.124L12.2959 35.445C12.3612 35.6457 12.4709 35.858 12.6249 36.082C12.7835 36.3013 12.9889 36.488 13.2409 36.642C13.4975 36.796 13.7962 36.873 14.1369 36.873C14.5102 36.873 14.8275 36.7983 15.0889 36.649C15.3502 36.4997 15.5485 36.299 15.6839 36.047C15.8192 35.795 15.8869 35.5127 15.8869 35.2C15.8869 34.8547 15.8052 34.5723 15.6419 34.353C15.4785 34.1337 15.2639 33.9703 14.9979 33.863C14.7365 33.7557 14.4495 33.702 14.1369 33.702H13.9549V32.61H14.1929C14.4635 32.61 14.7132 32.554 14.9419 32.442C15.1752 32.33 15.3619 32.169 15.5019 31.959C15.6419 31.749 15.7119 31.497 15.7119 31.203C15.7119 30.8157 15.5812 30.4867 15.3199 30.216C15.0632 29.9453 14.6759 29.81 14.1579 29.81C13.8685 29.81 13.6189 29.8567 13.4089 29.95C13.2035 30.0387 13.0355 30.1483 12.9049 30.279C12.7742 30.405 12.6762 30.5287 12.6109 30.65C12.5455 30.7713 12.5059 30.8623 12.4919 30.923L11.2669 30.349Z" fill="#ffffff"/>
</svg>

<svg xmlns="http://www.w3.org/2000/svg" width="70" height="70" fill="none"><path fill="#fff" d="M68.64 44.57H1.36c-1.814.072-1.813 2.663 0 2.735h6.755C12.85 59.029 21.532 66.44 34.646 69.953c.232.063.476.063.708 0C48.47 66.44 57.153 59.03 61.886 47.305h6.754c1.814-.073 1.813-2.663 0-2.735M52.86 47.305a30 30 0 0 1-1.15 2.008C48.046 55.161 42.578 59.156 35 61.518c-7.578-2.362-13.047-6.357-16.711-12.205q-.603-.96-1.15-2.008zM35 67.216c-11.641-3.206-19.483-9.73-23.92-19.911h3.004a34 34 0 0 0 1.887 3.46c4.095 6.534 10.19 10.947 18.635 13.492.257.078.531.078.789 0 8.444-2.545 14.54-6.958 18.634-13.492a34 34 0 0 0 1.887-3.46h3.004C54.484 57.485 46.642 64.01 35 67.216M1.36 25.43h67.28c1.814-.073 1.813-2.663 0-2.735H66.34c.074-1.973.11-4.04.11-6.289 0-.755-.612-1.367-1.367-1.367-7.54 0-13.674-6.133-13.674-13.672C51.41.612 50.797 0 50.042 0H19.958c-.755 0-1.368.612-1.368 1.367 0 7.539-6.134 13.672-13.674 13.672-.755 0-1.368.612-1.368 1.367 0 2.251.036 4.32.11 6.29H1.36c-1.814.071-1.813 2.662 0 2.734m4.928-7.713c7.958-.662 14.321-7.026 14.98-14.983h27.463c.66 7.957 7.023 14.321 14.981 14.983a157 157 0 0 1-.108 4.978h-2.731q.03-.759.05-1.537a1.37 1.37 0 0 0-1-1.354c-6.425-1.794-11.52-6.903-13.295-13.332a1.37 1.37 0 0 0-1.318-1.003h-4.157c-1.814.072-1.813 2.662 0 2.734h3.142c2.152 6.533 7.337 11.74 13.862 13.919l-.021.573H11.864l-.021-.573c6.525-2.18 11.71-7.386 13.862-13.919h3.141c1.814-.072 1.813-2.663 0-2.734H24.69c-.615 0-1.154.41-1.318 1.003-1.776 6.43-6.87 11.538-13.296 13.332a1.37 1.37 0 0 0-.999 1.354q.02.778.05 1.537H6.395c-.06-1.58-.096-3.224-.107-4.978"/><path fill="#fff" d="M35 8.203c1.814-.072 1.812-2.663 0-2.734h-.002c-1.814.072-1.811 2.663.001 2.734M30.896 32.085q.645 0 1.106.273.47.273.721.84.26.567.259 1.449V38h-1.477v-3.087q0-.833-.238-1.267-.231-.434-.875-.434-.35 0-.658.189a1.35 1.35 0 0 0-.497.567q-.182.37-.182.945V38h-1.386v-3.087q0-.833-.287-1.267-.28-.434-.84-.434-.357 0-.658.182-.3.182-.483.56-.182.378-.182.959V38h-1.484v-5.747h1.484v.861q.077-.217.343-.455.273-.238.679-.406t.889-.168q.526 0 .868.196.35.19.553.476.21.287.308.574.098-.287.378-.574.287-.287.714-.476.428-.196.945-.196m6.376 6.083q-.903 0-1.61-.392a2.94 2.94 0 0 1-1.1-1.078 3.03 3.03 0 0 1-.398-1.554q0-.868.399-1.561a2.9 2.9 0 0 1 1.099-1.092q.707-.406 1.61-.406t1.596.406q.693.399 1.085 1.092.399.693.399 1.561 0 .869-.4 1.554a2.9 2.9 0 0 1-1.084 1.078q-.693.392-1.596.392m0-1.26q.504 0 .875-.231a1.56 1.56 0 0 0 .574-.63 2 2 0 0 0 .203-.91q0-.51-.203-.91a1.6 1.6 0 0 0-.574-.644 1.6 1.6 0 0 0-.875-.238q-.504 0-.882.238a1.65 1.65 0 0 0-.581.644 2 2 0 0 0-.203.91q0 .51.203.91.21.399.58.63.38.231.883.231m7.782-4.823q.58 0 1.127.238.546.238.896.763.357.518.357 1.351V38h-1.505v-3.29q0-.777-.371-1.141-.364-.37-.945-.371-.385 0-.735.217t-.574.588a1.66 1.66 0 0 0-.217.854V38h-1.498v-5.747h1.498v.966q.063-.238.336-.497.28-.266.707-.448.426-.189.924-.189m3.387.168h1.078v-2.359h1.484v2.359h1.421v1.26h-1.42v2.457q0 .462.153.693a.52.52 0 0 0 .455.231q.246 0 .385-.091a1 1 0 0 0 .175-.126l.553 1.085q-.042.042-.245.14a2.94 2.94 0 0 1-1.26.266q-.727 0-1.218-.434-.483-.434-.483-1.358v-2.863h-1.078zm8.748-.168q.574 0 1.12.238.545.238.896.763.357.518.357 1.351V38h-1.505v-3.29q0-.777-.357-1.141-.35-.37-.931-.371-.385 0-.742.217t-.588.588q-.224.37-.224.854V38H53.71v-9.632h1.505v4.851q.063-.238.336-.497.28-.266.707-.448.427-.189.93-.189m6.192 0a4.2 4.2 0 0 1 1.603.308q.294.126.406.21l-.546.924q-.14-.12-.504-.273a2 2 0 0 0-.805-.154q-.447 0-.756.161-.308.16-.308.483 0 .315.322.504.33.189.89.315.46.105.881.294.42.181.686.525.273.336.273.903 0 .54-.23.903-.224.358-.603.574a2.7 2.7 0 0 1-.84.308 4.4 4.4 0 0 1-.917.098q-.567 0-1.015-.112a3.7 3.7 0 0 1-.735-.259 2.6 2.6 0 0 1-.42-.259l.546-1.036q.183.175.595.371.414.189.924.189.546 0 .875-.21.33-.21.33-.56a.57.57 0 0 0-.162-.42 1.1 1.1 0 0 0-.427-.259 5 5 0 0 0-.609-.175 6 6 0 0 1-.637-.196 2.6 2.6 0 0 1-.58-.322 1.5 1.5 0 0 1-.428-.504 1.5 1.5 0 0 1-.16-.707q0-.518.328-.882.33-.364.868-.553.54-.189 1.155-.189M2.895 33.387q0-1.225.294-2.128.302-.903.812-1.491.512-.595 1.148-.882a3.1 3.1 0 0 1 2.64 0q.643.287 1.147.882.504.588.798 1.491t.294 2.128q0 1.267-.294 2.17t-.798 1.484a3.24 3.24 0 0 1-1.148.854 3.33 3.33 0 0 1-2.639 0 3.3 3.3 0 0 1-1.148-.854q-.51-.58-.812-1.484-.294-.903-.294-2.17m1.491 0q0 1.162.273 1.939.28.77.75 1.148.476.37 1.056.371.596 0 1.057-.378.47-.378.742-1.148.273-.77.273-1.932 0-1.14-.273-1.911-.273-.77-.742-1.162a1.57 1.57 0 0 0-1.057-.399q-.581 0-1.057.399-.468.392-.749 1.169-.273.77-.273 1.904m6.88-3.038q.05-.203.246-.497.203-.294.553-.581.35-.286.875-.483.532-.195 1.239-.196.881 0 1.526.329.652.322 1 .889.35.567.35 1.295 0 .51-.202.931-.195.42-.511.693-.308.266-.658.336.378.042.763.315.392.266.65.742.267.47.267 1.113 0 .84-.413 1.505-.406.664-1.134 1.05-.72.378-1.666.378-.945 0-1.61-.322-.665-.33-1.064-.805-.392-.476-.532-.917l1.35-.679q.099.3.33.637.238.33.616.56.385.231.896.231.56 0 .952-.224t.595-.602.203-.847q0-.518-.245-.847a1.47 1.47 0 0 0-.644-.49 2.25 2.25 0 0 0-.861-.161h-.182V32.61h.238q.405 0 .749-.168.35-.168.56-.483t.21-.756q0-.58-.392-.987-.385-.405-1.162-.406-.435 0-.75.14a1.6 1.6 0 0 0-.503.329q-.196.19-.294.371a1.3 1.3 0 0 0-.12.273z"/></svg>
